X: 23936
T: Lochaber Badger, The
R: reel
M: 4/4
K: Eminor
|:EEED GGGE|AAAE BBBD|BBBG AG E2|EDGD E2E2|
EEED GGGE|AAAE B4|A/B/d ed {B}AG E2|e/d/B {F}ED E2E2:|

